Numix-Light/16/status/indicator-keyboard-Ta.svg

<?xml version="1.0" encoding="UTF-8" standalone="no"?>
<svg
   xmlns:dc="http://purl.org/dc/elements/1.1/"
   xmlns:cc="http://creativecommons.org/ns#"
   xmlns:rdf="http://www.w3.org/1999/02/22-rdf-syntax-ns#"
   xmlns:svg="http://www.w3.org/2000/svg"
   xmlns="http://www.w3.org/2000/svg"
   xmlns:sodipodi="http://sodipodi.sourceforge.net/DTD/sodipodi-0.dtd"
   xmlns:inkscape="http://www.inkscape.org/namespaces/inkscape"
   viewBox="0 0 16 16"
   id="svg2"
   version="1.1"
   inkscape:version="0.91 r13725"
   sodipodi:docname="indicator-keyboard-Ta.svg">
  <metadata
     id="metadata13">
    <rdf:RDF>
      <cc:Work
         rdf:about="">
        <dc:format>image/svg+xml</dc:format>
        <dc:type
           rdf:resource="http://purl.org/dc/dcmitype/StillImage" />
      </cc:Work>
    </rdf:RDF>
  </metadata>
  <defs
     id="defs11" />
  <sodipodi:namedview
     pagecolor="#ffffff"
     bordercolor="#666666"
     borderopacity="1"
     objecttolerance="10"
     gridtolerance="10"
     guidetolerance="10"
     inkscape:pageopacity="0"
     inkscape:pageshadow="2"
     inkscape:window-width="640"
     inkscape:window-height="480"
     id="namedview9"
     showgrid="false"
     inkscape:zoom="14.75"
     inkscape:cx="8"
     inkscape:cy="8"
     inkscape:window-x="65"
     inkscape:window-y="24"
     inkscape:window-maximized="0"
     inkscape:current-layer="svg2" />
  <path
     style="fill:#353535;fill-opacity:1"
     d="M 1.5996094 0 C 0.71320937 2.9605947e-16 0 0.71320937 0 1.5996094 L 0 14.400391 C 2.9605947e-16 15.286791 0.71320937 16 1.5996094 16 L 14.400391 16 C 15.286791 16 16 15.286791 16 14.400391 L 16 1.5996094 C 16 0.71320937 15.286791 0 14.400391 0 L 1.5996094 0 z M 3.8300781 4.8320312 L 8.4375 4.8320312 L 8.4375 5.3632812 L 6.4394531 5.3632812 L 6.4394531 11.068359 L 5.828125 11.068359 L 5.828125 5.3632812 L 3.8300781 5.3632812 L 3.8300781 4.8320312 z M 10.496094 6.3085938 C 10.802094 6.3085938 11.059531 6.3533594 11.269531 6.4433594 C 11.485531 6.5273594 11.659016 6.6467344 11.791016 6.8027344 C 11.923016 6.9527344 12.020078 7.13375 12.080078 7.34375 C 12.140078 7.55375 12.169922 7.7813437 12.169922 8.0273438 L 12.169922 10.960938 C 12.109922 10.978937 12.022203 10.999438 11.908203 11.023438 C 11.794203 11.041437 11.663672 11.063891 11.513672 11.087891 C 11.363672 11.111891 11.195766 11.128625 11.009766 11.140625 C 10.829766 11.158625 10.643172 11.167969 10.451172 11.167969 C 10.205172 11.167969 9.9775781 11.141891 9.7675781 11.087891 C 9.5635781 11.033891 9.3825625 10.949938 9.2265625 10.835938 C 9.0765625 10.715937 8.9571875 10.564766 8.8671875 10.384766 C 8.7831875 10.198766 8.7402344 9.9749374 8.7402344 9.7109375 C 8.7402344 9.4589375 8.7887656 9.2425 8.8847656 9.0625 C 8.9807656 8.8825 9.1150625 8.7350938 9.2890625 8.6210938 C 9.4630625 8.5010938 9.6701562 8.413375 9.9101562 8.359375 C 10.150156 8.305375 10.411359 8.2792969 10.693359 8.2792969 C 10.777359 8.2792969 10.865078 8.284875 10.955078 8.296875 C 11.051078 8.302875 11.140609 8.3140313 11.224609 8.3320312 C 11.314609 8.3440313 11.389219 8.3609062 11.449219 8.3789062 C 11.515219 8.3909063 11.559984 8.4020625 11.583984 8.4140625 L 11.583984 8.1269531 C 11.583984 7.9649531 11.572828 7.8082031 11.548828 7.6582031 C 11.524828 7.5022031 11.470719 7.3641406 11.386719 7.2441406 C 11.308719 7.1181406 11.194922 7.0192656 11.044922 6.9472656 C 10.900922 6.8692656 10.70875 6.8300781 10.46875 6.8300781 C 10.12675 6.8300781 9.871125 6.8543437 9.703125 6.9023438 C 9.535125 6.9503438 9.4119844 6.9895312 9.3339844 7.0195312 L 9.2539062 6.5058594 C 9.3559063 6.4578594 9.5126563 6.4130938 9.7226562 6.3710938 C 9.9386562 6.3290938 10.196094 6.3085937 10.496094 6.3085938 z M 10.675781 8.7832031 C 10.531781 8.7832031 10.382562 8.7943594 10.226562 8.8183594 C 10.070563 8.8363594 9.9249687 8.881125 9.7929688 8.953125 C 9.6609687 9.019125 9.5547031 9.1124219 9.4707031 9.2324219 C 9.3867031 9.3524219 9.34375 9.5129375 9.34375 9.7109375 C 9.34375 9.8849375 9.3717812 10.030391 9.4257812 10.150391 C 9.4857813 10.270391 9.5659687 10.367453 9.6679688 10.439453 C 9.7759687 10.511453 9.9009219 10.565563 10.044922 10.601562 C 10.194922 10.631562 10.364781 10.646484 10.550781 10.646484 C 10.778781 10.646484 10.976531 10.640906 11.144531 10.628906 C 11.318531 10.610906 11.463984 10.588453 11.583984 10.564453 L 11.583984 8.9277344 C 11.517984 8.8977344 11.413531 8.8678906 11.269531 8.8378906 C 11.125531 8.8018906 10.927781 8.7832031 10.675781 8.7832031 z "
     id="path4" />
</svg>

<svg xmlns="http://www.w3.org/2000/svg" viewBox="0 0 16 16">
 <path d="m 1.6 0 c -0.886 0 -1.6 0.713 -1.6 1.6 l 0 12.801 c 0 0.886 0.713 1.6 1.6 1.6 l 12.801 0 c 0.886 0 1.6 -0.713 1.6 -1.6 l 0 -12.801 c 0 -0.886 -0.713 -1.6 -1.6 -1.6 l -12.801 0 z m 2.23 4.832 l 4.607 0 l 0 0.531 l -1.998 0 l 0 5.705 l -0.611 0 l 0 -5.705 l -1.998 0 l 0 -0.531 z m 6.666 1.477 c 0.306 0 0.563 0.045 0.773 0.135 c 0.216 0.084 0.389 0.203 0.521 0.359 c 0.132 0.15 0.229 0.331 0.289 0.541 c 0.06 0.21 0.09 0.438 0.09 0.684 l 0 2.934 c -0.06 0.018 -0.148 0.038 -0.262 0.063 c -0.114 0.018 -0.245 0.04 -0.395 0.064 c -0.15 0.024 -0.318 0.041 -0.504 0.053 c -0.18 0.018 -0.367 0.027 -0.559 0.027 c -0.246 0 -0.474 -0.026 -0.684 -0.08 c -0.204 -0.054 -0.385 -0.138 -0.541 -0.252 c -0.15 -0.12 -0.269 -0.271 -0.359 -0.451 c -0.084 -0.186 -0.127 -0.41 -0.127 -0.674 c 0 -0.252 0.049 -0.468 0.145 -0.648 c 0.096 -0.18 0.23 -0.327 0.404 -0.441 c 0.174 -0.12 0.381 -0.208 0.621 -0.262 c 0.24 -0.054 0.501 -0.08 0.783 -0.08 c 0.084 0 0.172 0.006 0.262 0.018 c 0.096 0.006 0.186 0.017 0.27 0.035 c 0.09 0.012 0.165 0.029 0.225 0.047 c 0.066 0.012 0.111 0.023 0.135 0.035 l 0 -0.287 c 0 -0.162 -0.011 -0.319 -0.035 -0.469 c -0.024 -0.156 -0.078 -0.294 -0.162 -0.414 c -0.078 -0.126 -0.192 -0.225 -0.342 -0.297 c -0.144 -0.078 -0.336 -0.117 -0.576 -0.117 c -0.342 0 -0.598 0.024 -0.766 0.072 c -0.168 0.048 -0.291 0.087 -0.369 0.117 l -0.08 -0.514 c 0.102 -0.048 0.259 -0.093 0.469 -0.135 c 0.216 -0.042 0.473 -0.063 0.773 -0.063 z m 0.18 2.475 c -0.144 0 -0.293 0.011 -0.449 0.035 c -0.156 0.018 -0.302 0.063 -0.434 0.135 c -0.132 0.066 -0.238 0.159 -0.322 0.279 c -0.084 0.12 -0.127 0.281 -0.127 0.479 c 0 0.174 0.028 0.319 0.082 0.439 c 0.06 0.12 0.14 0.217 0.242 0.289 c 0.108 0.072 0.233 0.126 0.377 0.162 c 0.15 0.03 0.32 0.045 0.506 0.045 c 0.228 0 0.426 -0.006 0.594 -0.018 c 0.174 -0.018 0.319 -0.04 0.439 -0.064 l 0 -1.637 c -0.066 -0.03 -0.17 -0.06 -0.314 -0.09 c -0.144 -0.036 -0.342 -0.055 -0.594 -0.055 z" style="fill:#353535;fill-opacity:1"/>
</svg>
